X: 1
T: Rockin My Babies to Sleep
C: 
N: 
R: waltz
Z: 2020 John Chambers <jc:trillian.mit.edu>
S: https://www.facebook.com/groups/Fiddletuneoftheday/
S: https://www.facebook.com/groups/Fiddletuneoftheday/photos/
M: 3/4
L: 1/8
K: D
FG |\
A2 B2 A2 | G2 A2 G2 | F2 A,2 D2 | F4 FG | A2 E2 F2 | G4    B2 | B4  A2  | F4 FG |
A2 B2 A2 | G2 A2 G2 | F2 A,2 D2 | F4 FG | A2 E2 F2 | G2 C2 E2 | D4- D2- | D4 :|
|: FG |\
A2 fA fA | B2 gB gB | f3 e dB | A4 AB | A2 E2 F2 | G4    B2 | B4  A2  | F4 FG |
A2 fA f2 | B2 gB g2 | f3 e dB | A4 AB | A2 E2 F2 | G2 C2 E2 | D4- D2- | D4 :|
